packages/foundations/assets/icons/functional/images/buildings/house_24_filled.svg

<svg xmlns="http://www.w3.org/2000/svg" width="20" height="20" fill="none"><path fill="#1A1C1F" fill-rule="evenodd" d="M9.612 2.034a2.2 2.2 0 0 0-.75.301c-.158.099-1.04.964-3.456 3.391C3.543 7.597 2.132 9.04 2.09 9.117c-.057.105-.072.189-.072.4 0 .321.073.507.282.716.201.201.395.28.7.282.333.002.559-.105.815-.389l.184-.203.009 3.664.009 3.663.078.15c.107.204.289.388.488.495l.167.088 1.211.01c1.382.012 1.455.002 1.712-.224.088-.078.184-.206.231-.309l.079-.177.009-2.641.01-2.642H12v2.621c0 1.929.01 2.656.04 2.754.055.186.29.434.501.529.173.078.193.079 1.379.089 1.161.01 1.209.008 1.394-.062.257-.096.52-.358.616-.613.07-.186.07-.211.07-3.794V9.918l.204.225c.274.304.406.37.746.372.323.002.568-.097.779-.314.27-.279.347-.755.177-1.106-.051-.105-.982-1.054-3.347-3.413-3.512-3.503-3.433-3.431-3.926-3.585a2.9 2.9 0 0 0-1.021-.063"/></svg>

<svg width="20" height="20" viewBox="0 0 20 20" fill="none" xmlns="http://www.w3.org/2000/svg"><path d="M9.612 2.034 C 9.363 2.079,9.104 2.183,8.862 2.335 C 8.704 2.434,7.822 3.299,5.406 5.726 C 3.543 7.597,2.132 9.040,2.090 9.117 C 2.033 9.222,2.018 9.306,2.018 9.517 C 2.018 9.838,2.091 10.024,2.300 10.233 C 2.501 10.434,2.695 10.513,3.000 10.515 C 3.333 10.517,3.559 10.410,3.815 10.126 L 3.999 9.923 4.008 13.587 L 4.017 17.250 4.095 17.400 C 4.202 17.604,4.384 17.788,4.583 17.895 L 4.750 17.983 5.961 17.993 C 7.343 18.005,7.416 17.995,7.673 17.769 C 7.761 17.691,7.857 17.563,7.904 17.460 L 7.983 17.283 7.992 14.642 L 8.002 12.000 10.001 12.000 L 12.000 12.000 12.000 14.621 C 12.000 16.550,12.010 17.277,12.040 17.375 C 12.095 17.561,12.330 17.809,12.541 17.904 C 12.714 17.982,12.734 17.983,13.920 17.993 C 15.081 18.003,15.129 18.001,15.314 17.931 C 15.571 17.835,15.834 17.573,15.930 17.318 C 16.000 17.132,16.000 17.107,16.000 13.524 L 16.000 9.918 16.204 10.143 C 16.478 10.447,16.610 10.513,16.950 10.515 C 17.273 10.517,17.518 10.418,17.729 10.201 C 17.999 9.922,18.076 9.446,17.906 9.095 C 17.855 8.990,16.924 8.041,14.559 5.682 C 11.047 2.179,11.126 2.251,10.633 2.097 C 10.383 2.020,9.869 1.988,9.612 2.034 " fill="#1A1C1F" stroke="none" fill-rule="evenodd"></path></svg>
